X: 8
T:Ger the Rigger
T:Jer the Rigger
M:2/4
L:1/8
R:Polka
K:A
eA eA|e/2f/2e/2d/2 cA|d>c d/2e/2f/2g/2|aefe|!
eA eA|e/2f/2e/2d/2 cA|df/2d/2 ce/2c/2|B/2A/2B/2c/2 A2:|!
|:ae f/2e/2c/2e/2|ae f/2e/2c/2e/2|d>c d/2e/2f/2g/2|ae fe|!
ae f/2e/2c/2e/2|ae f/2e/2c/2e/2|df/2d/2 ce/2c/2|B/2A/2B/2c/2 A2:|]
